!!!SOCIAL_FUNCTION:	miscellaneous songs
!!!PDT:	1957
!!!OTL: No_18_Song_Concerning_the_Water_Used_in_Ceremonies.krn
!!!LING_GROUP: Keresan
!!!LANG: Tone
!!!REG: Southwest
**kern
*staff1
=1-
*clefF4
*k[b-e-a-]
*M2/4
4r
4G\
=2
4f\
16f\LK
8.e-\J
=3
*M3/4
16f\LK
8.B-\J
4B-\
4B-\
=4
*M2/4
16e-\LK
8.B-\J
4e-\
=5
16e-\LK
8.B-\J
16B-\LK
8.G\J
=6
4G\
4E-\
=7
*M3/4
16B-\LK
8.G\J
4B-\
8B-\L
8d\J
=8
16B-\LK
8.G\J
4G\
4G\
=9
8B-\L
16B-\L
16G\JJ
8B-\L
8An\J
4G\
=10
*M2/4
8B-\L
16B-\L
16G\JJ
8B-\L
8An\J
=11
*M3/4
16B-\LK
8.G\J
4G\
4G\
=12
4E-\
8E-\
8r
8B-\L
8G\J
=13
*M2/4
4B-\
8B-\L
8d\J
=14
*M3/4
16B-\LK
8.G\J
4G\
4E-\
=15
8B-\L
8G\J
4B-\
8B-\L
8d\J
=16
16B-\LK
8.G\J
4G\
8E-\
8r
=17
8B-\L
8G\J
4B-\
8B-\L
8d\J
=18
16B-\LK
8.G\J
4G\
4E-\
=19
8B-\L
8G\J
4B-\
8B-\L
8d\J
=20
16B-\LK
8.G\J
4G\
8E-\
8r
=21
8B-\L
8G\J
4B-\
8B-\L
8d\J
=22
8B-\L
8G\J
4G\
8G\L
8G\J
=23
8B-\L
16B-\L
16G\JJ
8B-\L
8An\J
4G\
=24
*M2/4
8B-\L
16B-\L
16G\JJ
8B-\L
8A-\J
=25
*M3/4
16B-\LK
8.G\J
4G\
4G\
=26
4E-\
8E-\
8r
4r
==:|!
*-
